X: 681
M: 6/8
L: 1/8
K: G
V: 1
|:\
|:\
gag fgf | e2d TB3 | gag f2g | a3 d3 |\
c2a B2g | A2G FED | GAB AGF | G3 G3 :|
V: 2 clef=bass middle=d
|:\
g3 g3 | d3 f3 | g3 g3 | g2d B2G |\
g3 g3 | d3 f3 | g3 d3 | gdB G3 :|
|:\
b3 a3 | g3 g3 | g3 g3 | c'd'c' bc'b |\
a3 g3 | d3 d3 | g3 d3 | gdB G3 :|

